X: 32217
T: Phillebelula All The Way
R: barndance
M: 4/4
K: Dmajor
d>cd>B (3ABA (3AGF|(3EEE F>G (3AAA (3ABc|d>BA>B d2 e2|.d2 .A2 .D2:|
.f2 .f2 (3fff g>f|g>fe>^d e2- e>c|.d2 .d2 (3ddd e>d|(3cBA (3AAA A2- A>c|
(3ded (3cBA B>cd>A|(3ded (3cBA B>cd>f|(3eee (3ef^g a2 (3ABc|.d2 .d2 .d2||

